X:1
T:Schottischer aus Schoenbach
F:http://www.volkstanz.at/MIDI/Sonstige/Schottischer_aus_Schoenbach.mid
N:in der quelle in F(1. teil) und C (2. teil), einstimmig, erster ton c'' 
Z:midi 2 abc transcription Simon Wascher
M: 2/4
L: 1/16
K:F
cc |\
c2A2 d2cc | c2B2 B4 | ccce b2e2 | a2f2 c2 cc |\
c2A2 d2cc | c2B2 B4 | ccce b2e2 | f2ff f2 :|
K:C
AG |\
G2e2 G2d2 | G2cc c2 AG | G2BB B2 AG | G2cc c2 AG |\
G2e2 G2d2 | G2cc c2G2 | AAA2 ddd2 | c2cc c3 :|
W:aus Simon Waschers TradArchiv

